!!!!SEGMENT: Sil2006-Omnis_pulchritudo_Domini.krn
!!!id: Sil2006
!!!AGN: Motet
!!!SCT: Lowinsky (1968)
!!!voices: 5
!!!COM: Andreas de Silva
!!!OTL: Omnis pulchritudo Domini
**kern	**kern	**kern	**kern	**kern
*part5	*part4	*part3	*part2	*part1
*staff5	*staff4	*staff3	*staff2	*staff1
*I"Bassus	*I"Tenor	*I"Altus	*I"Superius II	*I"Superius I
*I'B	*I'T	*I'A	*I'S. II	*I'S.I
*clefF4	*clefGv2	*clefG2	*clefG2	*clefG2
*k[]	*k[]	*k[]	*k[]	*k[]
*C:	*C:	*C:	*C:	*C:
*M2/1	*M2/1	*M2/1	*M2/1	*M2/1
*met(C|)	*met(C|)	*met(C|)	*met(C|)	*met(C|)
!!section: Prima pars: Omnis pulchritudo Domini
!!!OMD: Prima pars: Omnis pulchritudo Domini
=1	=1	=1	=1	=1
0A	0A	0r	0e	0a
=2	=2	=2	=2	=2
1A	0c#X	0r	1e	0a
[1A	.	.	[1e	.
=3	=3	=3	=3	=3
1A]	1c#i	0r	2e]	1.a
.	.	.	2e	.
1D	1d	.	1f	.
.	.	.	.	2a
=4	=4	=4	=4	=4
1A	2.e	0r	1a	1cc#X
.	4d	.	.	.
1A	2e	.	2a	1cc#i
.	[2f	.	[2a	.
=5	=5	=5	=5	=5
1B	4f]	0r	2a]	1dd
.	4e	.	.	.
.	4d	.	4g	.
.	4c	.	4f	.
1B	1d	.	2.g	1dd
.	.	.	4a	.
=6	=6	=6	=6	=6
0A	2e	0r	[0a	0cc#X
.	1f	.	.	.
.	2e	.	.	.
=7	=7	=7	=7	=7
1r	2.f	0r	1a]	1r
.	8eL	.	.	.
.	8dJ	.	.	.
1A	1e	.	2r	1cc#i
.	.	.	[2a	.
=8	=8	=8	=8	=8
1B	1r	0r	4a]	1dd
.	.	.	4g	.
.	.	.	4g	.
.	.	.	8fL	.
.	.	.	8gJ	.
1A	1c	.	1a	1ee
=9	=9	=9	=9	=9
2D	1d	0r	2.f	1.ff
1d	.	.	.	.
.	.	.	4g	.
.	1f	.	4a	.
.	.	.	4b	.
[2c	.	.	2cc	2ee
=10	=10	=10	=10	=10
2c]	1f	0r	2a	1dd
2B	.	.	2b	.
1c	1e	.	1g	1cc
=11	=11	=11	=11	=11
1F	0a	0r	0cc	0ff
4F	.	.	.	.
4G	.	.	.	.
4A	.	.	.	.
4B	.	.	.	.
=12	=12	=12	=12	=12
4c	2.g	0r	2cc	2.ee
4d	.	.	.	.
1e	.	.	4b	.
.	4f	.	4a	4dd
.	2g	.	2b	2ee
2A	2a	.	2cc	[2ff
=13	=13	=13	=13	=13
2d	2f	0r	2a	4ff]
.	.	.	.	4ee
2G	2g	.	2b	2.dd
1A	1e	.	1a	.
.	.	.	.	4cc#i
.	.	.	.	4cc#i
.	.	.	.	8bL
.	.	.	.	8cc#iJ
=14	=14	=14	=14	=14
1D	2d	[0d	2r	0dd
.	2.f	.	1a	.
2r	.	.	.	.
.	4e	.	.	.
[2G	4d	.	2b	.
.	4c	.	.	.
=15	=15	=15	=15	=15
2G]	2B	0d]	2g	1r
2F	2A	.	2a	.
2G	2B	.	2g	1dd
2D	[2A	.	[2a	.
=16	=16	=16	=16	=16
4A	2A]	0e	4a]	2cc
4G	.	.	4b	.
4A	4e	.	4cc	1cc
4B	4d	.	4b	.
[1c	4e	.	2.g	.
.	4f	.	.	.
.	[2g	.	.	4b
.	.	.	4f	4a
=17	=17	=17	=17	=17
2c]	2g]	1g	2.e	4ee
.	.	.	.	4dd
4B	1c	.	.	4ee
4A	.	.	8dL	4ff
.	.	.	8cJ	.
1G	.	1g	1d	2.gg
.	2B	.	.	.
.	.	.	.	4ff
=18	=18	=18	=18	=18
0r	2c	0g	1r	4ee
.	.	.	.	4dd
.	2d	.	.	1dd
.	1e	.	2r	.
.	.	.	[2g	2cc#i
=19	=19	=19	=19	=19
1r	1d	1a	2g]	0dd
.	.	.	2f#i	.
1G	2r	1b	1g	.
.	2G	.	.	.
=20	=20	=20	=20	=20
2D	2.d	[0a	2.f	0r
2.F	.	.	.	.
.	4e	.	4e	.
.	2f	.	2d	.
4G	.	.	.	.
4A	[2e	.	2c	.
4B	.	.	.	.
=21	=21	=21	=21	=21
2c	4e]	0a_	2e	2r
.	4d	.	.	.
2d	1d	.	2f	2dd
1A	.	.	1e	2ee
.	2c#i	.	.	2ee
=22	=22	=22	=22	=22
0D	1d	0a]	2d	2.ff
.	.	.	2.f	.
.	.	.	.	4ee
.	1A	.	.	4dd
.	.	.	4e	4cc
.	.	.	4d	[2dd
.	.	.	4c	.
=23	=23	=23	=23	=23
1r	0r	0r	4B	4dd]
.	.	.	4A	4cc
.	.	.	1d	4b
.	.	.	.	4a
2r	.	.	.	2b
2C	.	.	2c	[2a
=24	=24	=24	=24	=24
2D	1r	0r	1B	2a]
2E	.	.	.	2g#i
1F	2r	.	[1A	[1a
.	2c	.	.	.
=25	=25	=25	=25	=25
0D	2d	0r	1A]	1a]
.	2e	.	.	.
.	1f	.	1r	2r
.	.	.	.	2a
=26	=26	=26	=26	=26
2r	1d	0r	1r	2a
2G	.	.	.	2b
2A	1r	.	2r	1cc
2F	.	.	2c	.
=27	=27	=27	=27	=27
0r	2r	0r	2d	0a
.	2c	.	2e	.
.	2d	.	1f	.
.	2e	.	.	.
=28	=28	=28	=28	=28
1r	2.f	0r	1d	2r
.	.	.	.	2a
.	4e	.	.	.
2r	4d	.	2r	2a
.	4c	.	.	.
2G	2d	.	2g	2b
=29	=29	=29	=29	=29
2A	2c	0r	2e	1.cc
2F	2.f	.	2f	.
1c	.	.	2g	.
.	4e	.	.	.
.	4e	.	[2c	4b
.	8dL	.	.	4a
.	8eJ	.	.	.
=30	=30	=30	=30	=30
0F	1f	0r	2c]	1a
.	.	.	1f	.
.	1r	.	.	2r
.	.	.	2f	[2cc
=31	=31	=31	=31	=31
0r	0r	0r	2f	2cc]
.	.	.	2e	2cc
.	.	.	2f	2cc
.	.	.	2g	2b
=32	=32	=32	=32	=32
1r	0r	0r	2a	2cc
.	.	.	2b	2dd
2r	.	.	2.cc	2.ee
[2A	.	.	.	.
.	.	.	4b	4dd
=33	=33	=33	=33	=33
2A]	0r	0r	2cc	2ee
2A	.	.	2.a	2.ff
2A	.	.	.	.
.	.	.	4g	4ee
2G	.	.	2e	[2ee
=34	=34	=34	=34	=34
2A	1r	0r	1f	2ee]
2B	.	.	.	2dd
1c	2r	.	1e	2ee
.	[2e	.	.	[2cc
=35	=35	=35	=35	=35
2r	2e]	0r	1A	2cc]
1c	2e	.	.	4b
.	.	.	.	4a
.	2e	.	1r	1g
2B	2d	.	.	.
=36	=36	=36	=36	=36
1A	2e	0r	1c	1cc
.	2f	.	.	.
1G	2.g	.	4d	2.b
.	.	.	4c	.
.	.	.	4d	.
.	8fL	.	4e	4a
.	8eJ	.	.	.
=37	=37	=37	=37	=37
2r	2d	0r	2f	4b
.	.	.	.	4a
2E	2e	.	1g	2cc
2G	2d	.	.	2b
2E	[2e	.	[2g	[2cc
=38	=38	=38	=38	=38
1G	2e]	0r	4g]	4cc]
.	.	.	4f	4b
.	2d	.	2g	1b
1A	1c	.	2e	.
.	.	.	2f	2a
=39	=39	=39	=39	=39
0E	1B	[0g#X	2.e	[0b
.	.	.	4d	.
.	1r	.	1e	.
=40	=40	=40	=40	=40
1r	1B	0g#]	1d	0b]
1E	[1e	.	1r	.
=41	=41	=41	=41	=41
0A	1e]	[0a	1c	1r
.	1c	.	1e	1cc
=42	=42	=42	=42	=42
1F	1A	0a]	1.f	1cc
1D	[1d	.	.	[1dd
.	.	.	4g	.
.	.	.	4f	.
=43	=43	=43	=43	=43
1.G	1d]	[0b	1g	2dd]
.	.	.	.	2b
.	[1G	.	1d	1dd
2A	.	.	.	.
=44	=44	=44	=44	=44
2B	2G]	0b]	0g	1dd
2c	2A	.	.	.
1d	4B	.	.	4dd
.	4A	.	.	4cc
.	4B	.	.	4dd
.	4c	.	.	4ee
=45	=45	=45	=45	=45
1D	4d	0a	2.f	1ff
.	4c	.	.	.
.	4d	.	.	.
.	4e	.	4e	.
2r	1f	.	4d	1r
.	.	.	4c	.
2D	.	.	2d	.
=46	=46	=46	=46	=46
2.E	1e	[0g	2B	0r
.	.	.	1G	.
4F	.	.	.	.
2G	2d	.	.	.
2C	2c	.	[2g	.
=47	=47	=47	=47	=47
1G	1d	0g]	4g]	1r
.	.	.	4a	.
.	.	.	2b	.
1r	1e	.	4cc	2r
.	.	.	4b	.
.	.	.	4a	2cc
.	.	.	4g	.
=48	=48	=48	=48	=48
1r	2r	[0a	2f	2dd
.	2c	.	2e	2ee
2r	2d	.	1r	2ff
2c	2e	.	.	2ee
=49	=49	=49	=49	=49
2d	2f	0a]	2r	2dd
2e	2e	.	2c	2a
2f	2d	.	2d	1r
2e	2A	.	2e	.
=50	=50	=50	=50	=50
2d	2r	[0a	2f	2r
2A	2e	.	2e	2cc
2r	2f	.	2d	2dd
2C	2e	.	[2A	2ee
=51	=51	=51	=51	=51
2.D	2d	0a_	2A]	1ff
.	1A	.	2.f	.
4E	.	.	.	.
2F	.	.	.	2r
.	.	.	4e	.
2C	2G	.	[2e	2ee
=52	=52	=52	=52	=52
1D	4F	0a_	2e]	1ff
.	4G	.	.	.
.	4A	.	2d	.
.	4B	.	.	.
[1A	[1c	.	1e	2ee
.	.	.	.	2cc
=53	=53	=53	=53	=53
1A]	1c]	0a]	2r	2cc
.	.	.	2f	2cc
1r	1r	.	2f	1dd
.	.	.	2f	.
=54	=54	=54	=54	=54
0r	0r	0r	1g	2dd
.	.	.	.	1ee
.	.	.	2g	.
.	.	.	2a	2cc
=55	=55	=55	=55	=55
0r	0r	0r	2f	2dd
.	.	.	2g	2ee
.	.	.	2a	1ff
.	.	.	2b	.
=56	=56	=56	=56	=56
1r	2r	0r	0cc	1ee
.	2c	.	.	.
2r	2c	.	.	1r
2F	2c	.	.	.
=57	=57	=57	=57	=57
2F	1d	0r	0r	0r
2F	.	.	.	.
1G	2d	.	.	.
.	[2e	.	.	.
=58	=58	=58	=58	=58
2G	2e]	0r	0r	0r
2A	2c	.	.	.
2F	2d	.	.	.
2G	2e	.	.	.
=59	=59	=59	=59	=59
2A	1f	0r	0r	1r
2B	.	.	.	.
1c	[1e	.	.	2r
.	.	.	.	2g
=60	=60	=60	=60	=60
1C	0e]	0r	2r	2g
.	.	.	2c	2g
1r	.	.	2c	2a
.	.	.	2c	2cc
=61	=61	=61	=61	=61
0r	1r	0r	2d	2b
.	.	.	2f	2a
.	2r	.	2.e	1g
.	2c	.	.	.
.	.	.	4d	.
=62	=62	=62	=62	=62
2r	2c	0r	2e	0r
2F	2c	.	2f	.
2F	2d	.	1r	.
2F	2f	.	.	.
=63	=63	=63	=63	=63
2G	2e	0r	0r	0r
2B-i	2d	.	.	.
2A	2c	.	.	.
2F	[2f	.	.	.
=64	=64	=64	=64	=64
1c	4f]	0r	1g	1cc
.	4e	.	.	.
.	4e	.	.	.
.	8dL	.	.	.
.	8eJ	.	.	.
2.F	1f	.	2.a	2cc
.	.	.	.	4cc
4G	.	.	4g	4b
=65	=65	=65	=65	=65
4A	2.c	[0a	1e	4cc
4B	.	.	.	4dd
1c	.	.	.	1ee
.	4d	.	.	.
.	2e	.	1r	.
[2d	2f	.	.	[2ff
=66	=66	=66	=66	=66
2d]	2d	0a_	1r	2ff]
2A	2.a	.	.	2.ee
2c	.	.	2r	.
.	4g	.	.	4dd
2d	2f	.	2d	[2dd
=67	=67	=67	=67	=67
1A	1e	0a]	2e	2dd]
.	.	.	2e	2cc#i
1D	1d	.	1f	1dd
=68	=68	=68	=68	=68
1.A	1.c	[0e	1.a	1.ee
2A	2c	.	2a	2ee
=69	=69	=69	=69	=69
1A	1c	0e]	1a	1ee
1A	1A	.	[1cc	1ee
=70	=70	=70	=70	=70
1A	1.c	0a	2cc]	1ee
.	.	.	2cc	.
1F	.	.	1cc	1ff
.	2d	.	.	.
=71	=71	=71	=71	=71
0c	1e	1g	0cc	2.gg
.	.	.	.	4ff
.	[1c	1g	.	4ee
.	.	.	.	4dd
.	.	.	.	[2ee
=72	=72	=72	=72	=72
0C	2c]	0e	2r	4ee]
.	.	.	.	4dd
.	2c	.	2g	4cc
.	.	.	.	4b
.	1c	.	2e	1cc
.	.	.	2c	.
=73	=73	=73	=73	=73
1r	0G	0d	[0g	1b
2r	.	.	.	2r
2G	.	.	.	2b
=74	=74	=74	=74	=74
2E	2r	0e	0g]	2b
2C	2G	.	.	2cc
1G	2E	.	.	2b
.	2C	.	.	2cc
=75	=75	=75	=75	=75
1r	1G	0d	0g	1dd
1G	1r	.	.	1b
=76	=76	=76	=76	=76
2E	1G	0c	0g	1ee
2C	.	.	.	.
1G	2E	.	.	2ee
.	2C	.	.	2ee
=77	=77	=77	=77	=77
1r	2.G	0d	0g	0dd
.	4F	.	.	.
2r	4G	.	.	.
.	4A	.	.	.
[2G	[2B-i	.	.	.
=78	=78	=78	=78	=78
2G]	2B-]	[0e	2r	0r
1A	2c	.	1cc	.
.	2A	.	.	.
2G	2B	.	2b	.
=79	=79	=79	=79	=79
2.A	2.c	1e]	2a	2r
.	.	.	1cc	1ee
4G	4B	.	.	.
2E	2G	[1g	.	.
[2c	2C	.	2c	2ee
=80	=80	=80	=80	=80
2c]	1G	0g]	2d	1dd
2B	.	.	2d	.
2.c	1C	.	2c	[1ee
.	.	.	2cc	.
4B	.	.	.	.
=81	=81	=81	=81	=81
2G	2r	0e	2b	1ee]
1A	2c	.	2a	.
.	2A	.	2cc	1r
2G	2B	.	2b	.
=82	=82	=82	=82	=82
2.A	2c	[0el	2a	1ee
.	2A	.	2cc	.
4G	.	.	.	.
1E	2B	.	2b	[1ee
.	[2c	.	2g	.
=83	=83	=83	=83	=83
0AA	4c]	0e_	0a	2ee]
.	4B	.	.	.
.	4A	.	.	2dd
.	4G	.	.	.
.	1A	.	.	1cc
=	=	=	=	=
00E	00B	00e]	00g	00b
=||	=||	=||	=||	=||
*M2/1	*M2/1	*M2/1	*M2/1	*M2/1
*met(C2)	*met(C2)	*met(C2)	*met(C2)	*met(C2)
!!section: Secunda pars: Ascendens Christus
!!!OMD: Secunda pars: Ascendens Christus
0E	1r	0r	0r	0g#X
.	[1B	.	.	.
=84	=84	=84	=84	=84
1E	2B]	0r	0r	1g#i
.	4c	.	.	.
.	4B	.	.	.
1E	1c	.	.	[1g#X
=85	=85	=85	=85	=85
1E	1B	0r	0r	1g#]
4E	2r	.	.	1g#i
4D	.	.	.	.
4E	[2B	.	.	.
4F	.	.	.	.
=86	=86	=86	=86	=86
1G	2B]	0r	0r	1g#i
.	1B	.	.	.
1E	.	.	.	1g#i
.	2c	.	.	.
=87	=87	=87	=87	=87
0F	2A	0d	0r	0a
.	2.d	.	.	.
.	4c	.	.	.
.	2A	.	.	.
=88	=88	=88	=88	=88
[0E	2c	0e	0r	0g#X
.	2B	.	.	.
.	[1G	.	.	.
=89	=89	=89	=89	=89
0E]	1G]	[0g	0e	1r
.	1r	.	.	[1b
=90	=90	=90	=90	=90
0r	0r	0g]	1e	2b]
.	.	.	.	4cc
.	.	.	.	4b
.	.	.	1e	1cc
=91	=91	=91	=91	=91
0r	0r	0g	1e	1b
.	.	.	4e	2r
.	.	.	4d	.
.	.	.	4e	[2b
.	.	.	4f	.
=92	=92	=92	=92	=92
0r	0r	0g	1g	2b]
.	.	.	.	1b
.	.	.	1e	.
.	.	.	.	[2cc
=93	=93	=93	=93	=93
0r	0r	0a	0f	2cc]
.	.	.	.	2.dd
.	.	.	.	4cc
.	.	.	.	4b
.	.	.	.	4a
=94	=94	=94	=94	=94
2r	2r	0b	0e	0g
2E	2e	.	.	.
2E	2e	.	.	.
2E	2e	.	.	.
=95	=95	=95	=95	=95
1F	2c	[0a	0r	0r
.	1f	.	.	.
2D	.	.	.	.
2C	2e	.	.	.
=96	=96	=96	=96	=96
2D	2f	0a]	0r	0r
2C	2e	.	.	.
1F	2d	.	.	.
.	[2c	.	.	.
=97	=97	=97	=97	=97
0E	2c]	0g	2r	2r
.	4B	.	2e	2ee
.	4A	.	.	.
.	1G	.	2e	2ee
.	.	.	2e	2ee
=98	=98	=98	=98	=98
0r	0r	[0a	1f	2cc
.	.	.	.	1ff
.	.	.	2d	.
.	.	.	2c	2ee
=99	=99	=99	=99	=99
0r	0r	0a]	2d	2ff
.	.	.	2c	2ee
.	.	.	1f	4dd
.	.	.	.	4cc
.	.	.	.	4b
.	.	.	.	4a
=100	=100	=100	=100	=100
2r	2r	0b	1e	0g
2E	2e	.	.	.
2E	2e	.	1r	.
2E	2e	.	.	.
=101	=101	=101	=101	=101
1F	2c	[0a	0r	0r
.	1f	.	.	.
2D	.	.	.	.
2C	2e	.	.	.
=102	=102	=102	=102	=102
2D	2f	0a]	0r	0r
2C	2e	.	.	.
1F	2d	.	.	.
.	[2c	.	.	.
=103	=103	=103	=103	=103
0E	2c]	0g	2r	2r
.	4B	.	2e	2ee
.	4A	.	.	.
.	1G	.	2e	2ee
.	.	.	2e	2ee
=104	=104	=104	=104	=104
0r	0r	[0a	1f	2cc
.	.	.	.	1ff
.	.	.	2d	.
.	.	.	2c	2ee
=105	=105	=105	=105	=105
1r	1r	0a]	2d	2ff
.	.	.	2c	2ee
1D	2r	.	1f	1dd
.	[2A	.	.	.
=106	=106	=106	=106	=106
1A	2A]	[0a	1e	1cc
.	1c	.	.	.
2A	.	.	2r	2r
[2F	2A	.	2f	2cc
=107	=107	=107	=107	=107
2F]	2d	0a_	2f	2dd
2D	2d	.	2.a	2.ff
2.F	2c	.	.	.
.	.	.	4g	4ee
.	2d	.	2f	2dd
4G	.	.	.	.
=108	=108	=108	=108	=108
1A	2A	0a]	2e	2dd
.	2e	.	2e	2cc#i
2r	2.f	.	2d	[1dd
2D	.	.	[2f	.
.	4e	.	.	.
=109	=109	=109	=109	=109
1A	1c	0r	2f]	1dd]
.	.	.	4e	.
.	.	.	4d	.
2A	2r	.	2c	2r
[2F	2c	.	2f	2cc
=110	=110	=110	=110	=110
2F]	2A	[0a	2f	2dd
2D	2d	.	2.a	2.ff
2.F	2c	.	.	.
.	.	.	4g	4ee
.	2d	.	2f	2dd
4G	.	.	.	.
=111	=111	=111	=111	=111
1A	2A	0a_	2e	2dd
.	2A	.	2e	2cc#i
1r	1D	.	2d	1dd
.	.	.	[2f	.
=112	=112	=112	=112	=112
1.AA	1r	0a]	2f]	1r
.	.	.	2.e	.
.	1A	.	.	[1cc
.	.	.	4d	.
2AA	.	.	4c	.
.	.	.	4B	.
=113	=113	=113	=113	=113
2AA	1.A	0e	2c	1cc]
2AA	.	.	2A	.
1AA	.	.	2r	1cc
.	2A	.	[2a	.
=114	=114	=114	=114	=114
2r	1A	[0a	2a]	0cc
1AA	.	.	2a	.
.	1A	.	1e	.
2AA	.	.	.	.
=115	=115	=115	=115	=115
2.D	2r	0a]	0f	1dd
.	1A	.	.	.
4E	.	.	.	.
2F	.	.	.	2cc
2F	2A	.	.	[2cc
=116	=116	=116	=116	=116
1C	2.c	0g	1e	2cc]
.	.	.	.	2cc
.	4B	.	.	.
2r	2c	.	2r	2cc
2C	2e	.	2cc	2cc
=117	=117	=117	=117	=117
2G	1d	0g	2cc	2dd
2G	.	.	2b	2dd
1C	2r	.	2.cc	[1ee
.	2G	.	.	.
.	.	.	4b	.
=118	=118	=118	=118	=118
2r	2A	0e	2a	1ee]
2G	2B	.	2g	.
2A	2.c	.	2r	1cc
[2c	.	.	2g	.
.	4B	.	.	.
=119	=119	=119	=119	=119
2c]	0G	0d	1g	0dd
4B	.	.	.	.
4A	.	.	.	.
2.B	.	.	1g	.
4A	.	.	.	.
=120	=120	=120	=120	=120
1c	2r	[0e	1g	1cc
.	1c	.	.	.
[1C	.	.	2r	1cc
.	2d	.	[2g	.
=121	=121	=121	=121	=121
1C]	2.e	0e]	2g]	2r
.	.	.	2g	1cc
.	4f	.	.	.
1C	[1g	.	4g	.
.	.	.	4a	.
.	.	.	4b	2cc
.	.	.	4cc	.
=122	=122	=122	=122	=122
1G	1g]	0d	4dd	1b
.	.	.	4cc	.
.	.	.	4b	.
.	.	.	4a	.
1G	[1g	.	2.b	1dd
.	.	.	4a	.
=123	=123	=123	=123	=123
0C	1g]	0c	0cc	1ee
.	[1G	.	.	2r
.	.	.	.	[2cc
=124	=124	=124	=124	=124
0r	1G]	0d	2r	2cc]
.	.	.	1g	4b
.	.	.	.	4a
.	1G	.	.	2b
.	.	.	2g	2b
=125	=125	=125	=125	=125
1r	1c	0e	2g	2cc
.	.	.	1a	2a
1AA	2A	.	.	2.cc
.	2c	.	2a	.
.	.	.	.	4dd
=126	=126	=126	=126	=126
1E	2.B	0g	2b	1ee
.	.	.	2b	.
.	4A	.	.	.
2E	1G	.	[1cc	2r
[2C	.	.	.	[2ee
=127	=127	=127	=127	=127
2C]	2r	0e	1cc]	4ee]
.	.	.	.	4dd
2AA	2c	.	.	2.cc
2.C	2c	.	1r	.
.	.	.	.	4b
.	2c	.	.	[2a
4D	.	.	.	.
=128	=128	=128	=128	=128
1E	1B	[0el	2r	2a]
.	.	.	2b	2g#i
1r	1A	.	1cc	2a
.	.	.	.	[2cc
=129	=129	=129	=129	=129
1AA	1c	0e_	1a	2cc]
.	.	.	.	4b
.	.	.	.	4a
1E	1B	.	1b	2.g
.	.	.	.	4a
=130	=130	=130	=130	=130
2E	2G	0e_	0r	2b
1C	2.c	.	.	2cc
.	.	.	.	2g
.	4d	.	.	.
2AA	[2e	.	.	[2cc
=131	=131	=131	=131	=131
2.C	4e]	0e_	2r	4cc]
.	4d	.	.	4b
.	2c	.	2.e	2.a
4D	.	.	.	.
2E	1B	.	.	.
.	.	.	4d	4g#i
2E	.	.	2B	4g#i
.	.	.	.	8f#iL
.	.	.	.	8g#iJ
=132	=132	=132	=132	=132
[0AAl	[0Al	0e_	1.c	[0al
.	.	.	4B	.
.	.	.	4A	.
=133	=133	=133	=133	=133
00AA]	00A]	00e]	00cl	00a]
==	==	==	==	==
*-	*-	*-	*-	*-
!!!system-decoration: [*]
!!!RDF**kern: i = editorial accidental
!!!RDF**kern: l = terminal long
!!!ENC: Benjamin Ory
!!!END: 2022/2/9
!!!EED: Benjamin Ory
!!!EEV: 2022/02/09
!!!YEC: Copyright 2022 Benjamin Ory, All Rights Reserved
!!!ONB: Translated from MusicXML on 2022/02/09
